X:1
T:Quam pulchri sunt
T:Severo Bonino
T:Source : Primo libro de motetti a tre voci---op. III---Venetia---A.Raverii---1609. Editor : André Vierendeels (26/08/17).
T:Notes : Original clefs : C1, C1, F4 Original note values have been halved Square brackets indicate ligatures Editorial accidentals above the staff 
T:Quam pulchri sunt
T:©
T:©
T:©
T:©
C:Severo Bonino
Z:©
%%score [ 1 2 3 ]
L:1/8
Q:1/4=120
M:4/4
K:F
V:1 treble nm="Soprano 1" snm="S 1"
V:2 treble nm="Soprano 2" snm="S 2"
V:3 bass nm="Bass" snm="B"
V:1
 c4 B4 | A4 G4- | G2 F4 E2 | D4 C2 c2 | B4 A4 | A2 G4 x2 | E2 F4 E2 | DEFD E2 F2 | G4 A4 | %9
w: Quam pul-|chri sunt|_ gres- sus|tu- i, quam|pul- chri|sunt gres-|* * sus|tu- * * * * *|* i,|
 d3 d d2 B2- | B2 A2 G4 | G6 A2 | G4 A3 G | F4 G4 | A2 c4 =B2 | c8 | A4 B2 A2 | B2 c2 F2 G2- | %18
w: Fi- li- a prin-|* ci- pis|col- lum|tu- * *||um, col- lum|tu-|um sic- ut|thur- ris e- bur-|
 G2 ^FF G2 A2- | AA G2 F4 | ^C2 D2 E4 | F2 F3 F B2 | A4 G2 FF- | FE/D/ E2 F2 A2 | A2 B2 A2 E2 | %25
w: * ne- a o- *|* cu- li tu-|i di- vi-|ni, o- cu- li|tu- i di- vi-|* * * * ni, et|co- me ca- pi-|
 C4 DE F2 |"^b" E2 z2 c4 | c2 d2 c2 B2 | A=B c4 B2 | c4 z4 | z4 c2 A2 | G3 G A2 B2- | %32
w: tis tu- * *|i, et|co- me ca- pi-|tis tu- * *|i,|sic- ut|pur- pu- ra re-|
 B2 A2 z2 F2- | F2 E2 F3 E | E2 DE FE D2- | DE F4 GF/E/ | DE F4 A2 | F2 G2 A4 | z2 c4 A2- | %39
w: gis, _ sic-|* ut pur- pu-|ra re- * * * *||* * gis, quam|pul- chra es,|quam pul-|
 A2 B2 c2 A2 | B2 c2 d4 | c2 B2 A2 G2- | G^F/E/ FF G4 | z2 z d A/G/A/B/ AB | c3 d A/G/A/B/ AB | %45
w: * chra es, et|quam de- co-|ra ca- ris- *|* * * * si- ma.|Al- le- * * * * lu-|ia, Al- le- * * * * lu-|
 c2 B2 F4- | F2 E2 F3 G | A/G/A/B/ AB c3 d | A/G/A/B/ AB c3 B | A2 d4 c2 | G4 !fermata!A4 |] %51
w: ia, Al- le-|* lu- ia, Al-|le- * * * * lu- ia, Al-|le- * * * * lu- ia, Al|le- lu- *|* ia.|
V:2
 z8 | c4 B4 | A4 G4 | z2 F4 E2- | E2 D4 C2 | z2 c4 B2- | B2 A2 G4 | FGAF G2 F2- | FE/D/ E2 F2 F2- | %9
w: |Quam pul-|chri sunt|gres- sus|_ tu- i,|quam pul-|* chri sunt|gres- * * * * sus|_ _ _ tu- i, Fi-|
 FF F2 BA G2- | G2 F2 E4 | D4 E2 F2- | F2 E2 F4 | D2 C2 D2 E2 | F3 E D2 G2 | G2 A2 E2 F2- | %16
w: * li- a Prin- * *|* ci- pis|col- lum tu-|* * um,|sic- ut thur- ris|e- * * bur-|ne- a col- lum|
 F2 F2 D4 | E4 D4 |"^-natural" z4 z2 F2- | FF E2 DE F2 | E2 D4 ^C2 | D4 dd d2 | c4 B2 A/B/c | %23
w: _ tu- *|* um,|o-|* cu- li tu- * *|i di- vi-|ni, o- cu- li|tu- i di- * *|
 G4 A2 c2 | c2 d2 c2 B2 |"^b" A=B c4 B2 | c2 A2 A2 G2 | A2 B2 A2 G2 | FGAF G4 | E2 E2 F2 D2- | %30
w: vi- ni, et|co- me ca- pi-|tis _ _ tu-|i, et co- me|ca- pi- tis tu-||i, sic- ut pur-|
 DD E2 F4 | E4 z4 | z2 c4 A2 | B3 B A2 G2- | G2 F2 d2 B2 | d3 d c2 B2- | B2 A2 c4 | A2 B2 c2 F2 | %38
w: * pu- ra re-|gis,|sic- ut|pur- pu- ra re-|* gis, sic- ut|pur- pu- ra re-|* gis, quam|pul- chra es, quam|
 F2 G2 AGFE | F2 G2 AG F2- | F2 G2 B4 | A2 G2 ^F2 G2 | A3 A =B3 c | A/G/A/B/ AB c3 d | %44
w: pul- chra es _ _ _|_ et quam _ _|_ de- co-|ra ca- ris- *|* si ma Al-|le- * * * * lu- ia, Al|
 A/G/A/B/ AB c3 B | A2 d4 c2 | G4 A2 z2 | z2 z d A/G/A/B/ AB | c3 d A/G/A/B/ cd | c2 B2 F4- | %50
w: le- * * * * lu- ia, Al-|le lu- *|* ia,|Al le- * * * * lu-|ia, Al le- * * * * lu-|ia, Al le-|
 F2 E2 !fermata!F4 |] %51
w: * lu- ia.|
V:3
 z8 | z8 | z4 C,4 | B,,4 A,,4 | G,,4 F,4- | F,2 E,2 D,4 | C,4 z4 | z8 | z8 | B,,3 B,, B,,2 _E,2- | %10
w: ||Quam|pul- chri|sunt gres-|* sus tu-|i,|||Fi- li- a Prin-|
 E,2 F,2 C,2 C2- | C2 =B,2 C4- | C4 A,4 | B,2 A,2 B,2 C2 | F,4 G,4 | E,2 F,2 C,2 F,2- | %16
w: * ci- pis col-|* lum tu-|* um,|sic- ut thur- *|rid e-|bur- ne- a sic-|
 F,G,A,F, G,2 F,2 | G,2 A,2 B,2 B,2 |"^-natural" A,3 A, G,2 F,2- | F,F, C,2 D,4 | A,2 B,2 A,4 | %21
w: * * * * * ut|thur- * ris e-|bur- ne- a o-|* cu- li tu-|i di- vi-|
 D,2 B,,3 B,, B,,2 | F,4 G,2 A,2 | C4 F,4- | F,2 F,2 F,2 G,2 | F,2 E,2 D,4 | C,2 F,4 E,2 | F,4 z4 | %28
w: ni, o- cu- li|tu- i di-|vi- ni,|_ co- me ca-|pi- tis tu-||i,|
 z8 | C,4 A,,2 B,,2- | B,,B,, G,,2 F,,4 | C,2 C2 A,2 G,2- | G,G, F,2 C,4 | G,4 z4 | z2 B,4 G,2 | %35
w: |sic- ut pur-|* pu- ra re-|gis, sic- ut pur-|* pu- ra re-|gis,|sic- ur|
 B,3 B, A,2 G,2- | G,2 F,2 z4 | z4 z2 F,2 | D,2 E,2 F,4 | z4 z2 F,2 | D,2 C,2 B,,4 | %41
w: pur- pu- ra re-|* gis,|quam|pul- chra es,|et|quam de- co-|
 F,,2 G,,2 D,4- | D,2 D,2 G,,3 C, | F,/E,/F,/G,/ F,B, F,3 B,, | F,/E,/F,/G,/ F,B, F,4- | %45
w: ra ca- ris-|* si- ma. Al-|le- * * * * lu- ia, Al-|le- * * * * lu- ia,|
 F,2 B,,4 A,,2 | C,4 F,,3 C, | F,/E,/F,/G,/ F,B, F,3 B,, | F,/E,/F,/G,/ F,B, F,4- | F,2 B,,4 A,,2 | %50
w: _ Al- le-|lu- ia, Al-|le- * * * * lu- ia, Al|le- * * * * lu- ia,|_ Al le-|
 C,4 !fermata!F,,4 |] %51
w: lu- ia.|

